X:0173
T:The Taylor's March.
M:6/8
L:1/8
Q:3/8=72
I: (1) :: (2) || (1) :: (2) ||
Z:Jack Campin * www.campin.me.uk * 2009
K:A Mixolydian
A/G/|:F>AA     f>ef   | d<BB TB2A|    F>GA     f>ef|[1 dAA  A2G:|\
                                                    [2 d>AA A2 ||
g   |(f/g/)af (g/a/)ba|Tf>ed  Bde|[1  f>ef     aef |   dAA  A2 :|\
                                  [2 (f/g/)ag Tf2e |   d<AA A2 |]
<end>
<start>
